X: 1227
T: An Dro
R: reel
M: 4/4
K: Bminor
|:f3gf2e2|d2c2B2cd|e2e2c2A2|Bcdef4|
f3gf2e2|d2c2B2cd|e2e2c2A2|1 BcdcB4:|2 BcdcB3e||
|:f2b2B3e|f2b2c4|e2e2c2A2|Bcdef3e|
f2b2B3e|f2b2c4|e2e2c2A2|1 BcdcB3e:|2 BcdcB4||
B2ABc2e2|dcBA Bcdc|B2ABc2e2|dcBAB4|
B2ABc2e2|dcBA Bcdc|B2ABc2e2|dcBAB4||
|:f2efg2e2|e2def2d2|B2ABc2e2|dcBA Bcde|
f2efg2e2|e2def2d2|B2ABc2e2|dcBAB4:|

